X: 27
T:L'HIRONDELLE
M:3/4
L:1/4
Q:190
C:trad. Bresse
R:valse
K:G
BGB|ded|B2A|G3|BGB|ded|B3|dBd|ege|dBd|c2B|ABc|d3|dBd|ege|dBd|e2d|AcB|G3|
|
